X: 5
T: Missa Dominicalis / Agnus Dei
N: Derived from Ort1001e-Missa_Dominicalis-Agnus.krn
C: Marbrianus de Orto
%%abc-version 2.0
%%abcx-abcm2ps-target-version 5.9.1 (29 Sep 2008)
%%abc-creator hum2abc beta
%%abcx-conversion-date 2019/02/17 07:28:36
%%abc-edited-by Jesse Rodin
%%abc-edited-by Jesse Rodin 8/12/2013
%%abcx-initial-encoding-date 2013/08/12/
%%humdrum-veritas 1153461383
%%humdrum-veritas-data 4124670341
%%linebreak <none>
%%barnumbers 0
L: 1/4
M: 3/1
Q: 1/2=120
%%staves [1 2 3 4]
V: 1 clef=treble
V: 2 clef=treble-8
V: 3 clef=treble-8
V: 4 clef=bass
K: F
[V:1] G12- | 
[V:2] G6c4B2 | 
[V:3] z12 | 
[V:4] z12 | 
[V:1] G4B8 | 
[V:2] c2_e4d2G2d2- | 
[V:3] z12 | 
[V:4] z12 | 
[V:1] A4G2A3FG2 | 
[V:2] d2c2B2A2B2AG | 
[V:3] z12 | 
[V:4] z12 | 
[V:1] A4z4A4 | 
[V:2] F2f3dg4^f2 | 
[V:3] z12 | 
[V:4] D,6C,2D,4 | 
[V:1] G4c8 | 
[V:2] g4a2gfe4 | 
[V:3] z12 | 
[V:4] E,4F,3E,C,4 | 
[V:1] B3AG2F2G2A2 | 
[V:2] d8z2f2 | 
[V:3] z12 | 
[V:4] G,3A,B,4_E,2D,2 | 
[V:1] c2B3AA4G2 | 
[V:2] e2d4c2d4 | 
[V:3] z12 | 
[V:4] C,2G,4A,2B,4 | 
[V:1] A4z2A2B2G2 | 
[V:2] z2e2f2d3Bc2- | 
[V:3] z12 | 
[V:4] A,4D,4z4 | 
[V:1] A2B2c2d3cA2- | 
[V:2] cBG2A2Bcdef2- | 
[V:3] z12 | 
[V:4] z12 | 
[V:1] AGF2E4D2F2 | 
[V:2] f2d4c2d2c2- | 
[V:3] z12 | 
[V:4] z4z2A,2B,2A,2 | 
[V:1] E2A2G2c2B2_e2 | 
[V:2] cde2d2e2f2g2- | 
[V:3] z12 | 
[V:4] C3A,B,2A,2D2C2 | 
[V:1] d2c3BAGB2A2 | 
[V:2] g2a3ge2d4 | 
[V:3] z12 | 
[V:4] B,2A,3B,C2G,2F,D, | 
[V:1] B2AGB2A3Bc2 | 
[V:2] z2d3ef4e2 | 
[V:3] z12 | 
[V:4] G,6F,2D,2C,2 | 
[V:1] B2A3GG4^F2 | 
[V:2] d4G4A4 | 
[V:3] z12 | 
[V:4] G,2D,2E,4D,4 | 
[V:1] G4z4F4 | 
[V:2] G2d4B2d4 | 
[V:3] G8B4- | 
[V:4] G,2B,3CD2z2D,2 | 
[V:1] G4GFEDC4 | 
[V:2] G4z4g4 | 
[V:3] B4G8 | 
[V:4] _E,6C,2E,4 | 
[V:1] D2E2F4E2F2 | 
[V:2] f2e2d2c4f2 | 
[V:3] A8A4 | 
[V:4] D,2C,2D,2F,2C,2D,2 | 
[V:1] G2B2A2G2F2c2 | 
[V:2] e2d2f2g2a4 | 
[V:3] G4c4c4 | 
[V:4] E,2G,2F,2E,2F,2A,2 | 
[V:1] B2A3GG4F2 | 
[V:2] d2f4d4d2 | 
[V:3] d4c2B2A4 | 
[V:4] G,2F,4G,2D,4 | 
[V:1] E2D2F2G2A2B2 | 
[V:2] g2b2a2d2f2dg- | 
[V:3] G4A2B2A2G2 | 
[V:4] z2G,2D,2G,2F,2G,2 | 
[V:1] c2d4c2A2d2 | 
[V:2] gfg4a4g2 | 
[V:3] z2B4A2c2B2 | 
[V:4] A,2G,3D,F,4G,2 | 
[V:1] c2B3AA4G2 | 
[V:2] e2gfd2f2d4 | 
[V:3] c2d2G2A2B4 | 
[V:4] A,2G,4F,2G,4 | 
[V:1] A4z4z4 | 
[V:2] f3gage2g2d2 | 
[V:3] A4c4B3A | 
[V:4] D,2F,3E,C,D,E,F,G,2 | 
[V:1] z4z4c4 | 
[V:2] g2a3gg4^f2 | 
[V:3] G2F2G2B2A4 | 
[V:4] B,2A,2z4z4 | 
[V:1] B2AGF2G2A4 | 
[V:2] g4z2g4^f2 | 
[V:3] G4z4z4 | 
[V:4] D6_E2D4 | 
[V:1] G4A2A4G2 | 
[V:2] g3fd2c2d2B2 | 
[V:3] d4f4d4 | 
[V:4] G,2B,3A,F,2B,4 | 
[V:1] A4G4c4 | 
[V:2] c4z4g4- | 
[V:3] e4e4e4 | 
[V:4] A,4C4C,4 | 
[V:1] B4c4d2e2 | 
[V:2] g4e4d2c2 | 
[V:3] d4g4g4 | 
[V:4] G,4C,4G,2E,2 | 
[V:1] f4e2d2e2d2- | 
[V:2] d2z2c2B2c2A2 | 
[V:3] a4g6f2 | 
[V:4] D,4z2G,2C,2D,2 | 
[V:1] d2c2d4c4- | 
[V:2] z2a4g2a4- | 
[V:3] e4d4e4 | 
[V:4] A,4B,4A,4 | 
[V:1] c4c4B2d2- | 
[V:2] a8d4- | 
[V:3] f4e4g4 | 
[V:4] F,4A,4G,4 | 
[V:1] dcA4c4B2 | 
[V:2] d4c4f4 | 
[V:3] f4e4d4 | 
[V:4] D,4A,4z4 | 
[V:1] c2A4d4c2 | 
[V:2] f3ga2g4e2 | 
[V:3] c4d4e4 | 
[V:4] F,6G,4A,2 | 
[V:1] A2d4c2B2A2 | 
[V:2] a4g6a2 | 
[V:3] f4e4d4- | 
[V:4] F,2D,2z4G,2F,2 | 
[V:1] d3cA2B4A2 | 
[V:2] b3af2g2d4 | 
[V:3] d12- | 
[V:4] G,4z2G,4F,2 | 
[V:1] B3AF2A4G2 | 
[V:2] G2B3AF2B4 | 
[V:3] d12- | 
[V:4] G,4D,4z2G,2- | 
[V:1] A4D2G4F2 | 
[V:2] A4B2G2A4 | 
[V:3] d12- | 
[V:4] G,2F,2G,4D,4 | 
[V:1] G2A3GG4^F2 | 
[V:2] B2A2d2B2A4 | 
[V:3] d12- | 
[V:4] G,2F,4G,2D,4 | 
[V:1] G12 ||  
[V:2] G12 ||  
[V:3] d12 ||  
[V:4] G,12 ||  
[V:1] [M:2/1]z8 | 
[V:2] [M:2/1]G8- | 
[V:3] [M:2/1]z8 | 
[V:4] [M:2/1]G,4D4 | 
[V:1] z8 | 
[V:2] G8- | 
[V:3] z8 | 
[V:4] _E4D4- | 
[V:1] z8 | 
[V:2] G8 | 
[V:3] z8 | 
[V:4] D2C2B,4- | 
[V:1] z8 | 
[V:2] d8 | 
[V:3] z8 | 
[V:4] B,2A,2G,4- | 
[V:1] z8 | 
[V:2] _e8 | 
[V:3] z8 | 
[V:4] G,4C,4 | 
[V:1] z8 | 
[V:2] d8- | 
[V:3] z8 | 
[V:4] G,4F,2B,2- | 
[V:1] z8 | 
[V:2] d8- | 
[V:3] z8 | 
[V:4] B,A,G,4F,2 | 
[V:1] z8 | 
[V:2] d8 | 
[V:3] z8 | 
[V:4] G,2D,2F,2G,2 | 
[V:1] z8 | 
[V:2] c8 | 
[V:3] z8 | 
[V:4] A,2G,F,E,4 | 
[V:1] z8 | 
[V:2] d4c2f2- | 
[V:3] z8 | 
[V:4] D,4A,4 | 
[V:1] z8 | 
[V:2] fed4c2 | 
[V:3] z8 | 
[V:4] B,4z2A,2 | 
[V:1] z8 | 
[V:2] d2G2B2c2 | 
[V:3] z8 | 
[V:4] B,2D3CA,2 | 
[V:1] z8 | 
[V:2] d2cBA4 | 
[V:3] z8 | 
[V:4] B,2G,4^F,2 | 
[V:1] D8 | 
[V:2] G4g4- | 
[V:3] z8 | 
[V:4] G,8 | 
[V:1] A8 | 
[V:2] g2fef4 | 
[V:3] z8 | 
[V:4] D,8 | 
[V:1] B8 | 
[V:2] z2g3fd2- | 
[V:3] z8 | 
[V:4] G,8 | 
[V:1] A8 | 
[V:2] def3ec2- | 
[V:3] z8 | 
[V:4] F,8 | 
[V:1] G8 | 
[V:2] cde3fg2- | 
[V:3] z8 | 
[V:4] C,8 | 
[V:1] d8 | 
[V:2] g2fef4 | 
[V:3] z8 | 
[V:4] B,,8 | 
[V:1] _e8 | 
[V:2] z4g4 | 
[V:3] z8 | 
[V:4] C,4C,4 | 
[V:1] d4c2f2- | 
[V:2] b3ag2a2- | 
[V:3] z8 | 
[V:4] G,3F,E,2D,2- | 
[V:1] fed4^c2 | 
[V:2] a2gfe4 | 
[V:3] z8 | 
[V:4] D,2F,2G,2A,2 | 
[V:1] d2G2B2c2 | 
[V:2] d2e2f2g2 | 
[V:3] z8 | 
[V:4] B,2C2D2_E2 | 
[V:1] d2cBA4 | 
[V:2] a2g4^f2 | 
[V:3] z8 | 
[V:4] D4D,4 | 
[V:1] G8 ||  
[V:2] g8 ||  
[V:3] z8 ||  
[V:4] z4G,4 ||  
[V:1]  [K:F] [K:clef=treble][M:2/1]z8 | 
[V:2]  [K:F] [K:clef=treble-8][M:2/1]d6e2 | 
[V:3]  [K:F] [K:clef=treble-8][M:2/1]B8- | 
[V:4]  [K:F] [K:clef=bass][M:2/1]z8 | 
[V:1] z8 | 
[V:2] f4g4- | 
[V:3] B8 | 
[V:4] z8 | 
[V:1] z8 | 
[V:2] g2fefedc | 
[V:3] A8 | 
[V:4] z8 | 
[V:1] z8 | 
[V:2] B2cd_e2d2- | 
[V:3] G8 | 
[V:4] z8 | 
[V:1] z8 | 
[V:2] d2cBA4 | 
[V:3] F8 | 
[V:4] z8 | 
[V:1] z8 | 
[V:2] z2B4AG | 
[V:3] G8 | 
[V:4] z8 | 
[V:1] z8 | 
[V:2] F4z2c2- | 
[V:3] A8- | 
[V:4] z8 | 
[V:1] z8 | 
[V:2] cde2f2ed | 
[V:3] A8 | 
[V:4] z4D,4 | 
[V:1] z8 | 
[V:2] c4z4 | 
[V:3] A4c4- | 
[V:4] F,6E,D, | 
[V:1] z8 | 
[V:2] g3fg2a2- | 
[V:3] c8- | 
[V:4] C,3D,E,2F,2- | 
[V:1] z8 | 
[V:2] a2gfe4 | 
[V:3] c4c4 | 
[V:4] F,2E,D,A,4 | 
[V:1] DEFGA2B2- | 
[V:2] z8 | 
[V:3] d8- | 
[V:4] B,2A,G,F,2G,2- | 
[V:1] B2A2G2B2- | 
[V:2] z8 | 
[V:3] d8- | 
[V:4] G,2F,2B,3A, | 
[V:1] B2A2B2d2- | 
[V:2] z8 | 
[V:3] d8- | 
[V:4] G,2F,2G,3F, | 
[V:1] dcBAG2B2 | 
[V:2] z8 | 
[V:3] d8 | 
[V:4] D,2G,4G,2 | 
[V:1] A2G2A4 | 
[V:2] z8 | 
[V:3] d4d4 | 
[V:4] D,2G,4^F,2 | 
[V:1] z8 | 
[V:2] z8 | 
[V:3] B2d3cB2- | 
[V:4] G,2B,3CD2- | 
[V:1] z8 | 
[V:2] z8 | 
[V:3] BAG2B2AG | 
[V:4] DCB,A,G,2B,2 | 
[V:1] z8 | 
[V:2] z8 | 
[V:3] F2G4^F2 | 
[V:4] A,2G,2A,4 | 
[V:1] z8 | 
[V:2] [M:2/1](3d4d4e4 | 
[V:3] z8 | 
[V:4] [M:2/1](3G,4G,4C4 | 
[V:1] (3d4d4e4 | 
[V:2] (3f4g4c4 | 
[V:3] z8 | 
[V:4] (3:2:2B,8A,4 | 
[V:1] (3f6e2c4 | 
[V:2] (3:2:2d4a8 | 
[V:3] [M:2/1](3d4d4e4 | 
[V:4] (3:2:2D,8A,4 | 
[V:1] (3z4d4e4 | 
[V:2] (3b4g4a4- | 
[V:3] (3f6e2c4 | 
[V:4] (3D4B,4A,4 | 
[V:1] (3f4e6d2 | 
[V:2] (3a4z4e4 | 
[V:3] (3d4g6f2 | 
[V:4] (3:2:2z4C8 | 
[V:1] (3:2:2d8^c4 | 
[V:2] (3:2:2g4a8 | 
[V:3] (3:2:2d4e8 | 
[V:4] (3:2:2B,4A,8 | 
[V:1] (3d4G4A4 | 
[V:2] (3f4d4f4 | 
[V:3] (3:2:2d8z4 | 
[V:4] (3D,4G,4F,4 | 
[V:1] (3:2:2B8c4 | 
[V:2] (3B4d4c4 | 
[V:3] (3:2:2G8A4 | 
[V:4] (3G,4B,4A,4 | 
[V:1] (3d6c2A4 | 
[V:2] (3:2:5B2c2d2e2f4- | 
[V:3] (3:2:2B8c4- | 
[V:4] (3:2:2G,8F,4- | 
[V:1] (3c2B2G8 | 
[V:2] (3f4g4G4 | 
[V:3] (3:2:1c12 | 
[V:4] (3:2:2F,4E,8 | 
[V:1] (3F4G4A4- | 
[V:2] (3A4c4A4- | 
[V:3] (3d4e4c4 | 
[V:4] (3D,4C,4F,4 | 
[V:1] (3:2:5A2F2G2A2B4- | 
[V:2] (3:2:5A4B2c2d2c2 | 
[V:3] (3:2:5d2c2B2A2G4 | 
[V:4] (3:2:5D,4D2C2B,2A,2 | 
[V:1] (3:2:5B2G2A2B2c4 | 
[V:2] (3:2:4d2e2f4e4 | 
[V:3] (3z4d4e4 | 
[V:4] (3G,4D,4A,4- | 
[V:1] (3:2:4c2A2B4c4 | 
[V:2] (3c4d4c4 | 
[V:3] (3f4g4e4 | 
[V:4] (3A,4G,4A,4 | 
[V:1] (3d6c2A4 | 
[V:2] (3f4d4c4 | 
[V:3] (3:2:2d4f8 | 
[V:4] (3B,6A,2F,4 | 
[V:1] (3:2:5c2B2A2G2c4 | 
[V:2] (3z4f4g4 | 
[V:3] (3f4c4_e4- | 
[V:4] (3F,6E,2C,4 | 
[V:1] (3B4A6G2 | 
[V:2] (3g4f6e2 | 
[V:3] (3:2:4e2d2c4d4 | 
[V:4] (3_E,4F,4D,4 | 
[V:1] (3:2:2G8^F4 | 
[V:2] (3:2:2c4d8 | 
[V:3] (3:2:2G4A8 | 
[V:4] (3:2:2_E,4D,8 | 
[V:1] G8 ||  
[V:2] (3:2:1d12 ||  
[V:3] (3:2:1G12 ||  
[V:4] (3:2:1G,12 ||  
[V:1]  [K:Bb] [K:clef=treble][M:2/1]G8 | 
[V:2]  [K:Bb] [K:clef=treble-8][M:2/1]e6dc | 
[V:3]  [K:Bb] [K:clef=treble-8][M:2/1]c6BA | 
[V:4]  [K:Bb] [K:clef=bass][M:2/1]C,8 | 
[V:1] G4G4 | 
[V:2] B2c2G4 | 
[V:3] G4B4 | 
[V:4] E,8 | 
[V:1] =E8 | 
[V:2] g6fe | 
[V:3] c3BG3A | 
[V:4] C,8 | 
[V:1] F3DF2G2- | 
[V:2] d4d4 | 
[V:3] B8 | 
[V:4] B,,8 | 
[V:1] GF=EDE4 | 
[V:2] c2BAG4 | 
[V:3] G4c4 | 
[V:4] C,8 | 
[V:1] z2D3=EF2- | 
[V:2] z4d4- | 
[V:3] F2GAB2A2- | 
[V:4] D,8 | 
[V:1] F2G2A4 | 
[V:2] d4d2d2- | 
[V:3] A2G4^F2 | 
[V:4] D,8 | 
[V:1] B6AG | 
[V:2] dcBAG4 | 
[V:3] G2d4cB | 
[V:4] z8 | 
[V:1] F2G3AB2- | 
[V:2] c2d2=e2f2- | 
[V:3] A2G2c2d2- | 
[V:4] z8 | 
[V:1] B2A4G2 | 
[V:2] f2=e2d3=e | 
[V:3] d2c2B2AG | 
[V:4] z8 | 
[V:1] A8 | 
[V:2] f4=e2d2- | 
[V:3] F8 | 
[V:4] D,8- | 
[V:1] z4d4 | 
[V:2] d2c4=B2 | 
[V:3] f8 | 
[V:4] D,8 | 
[V:1] e4e4 | 
[V:2] c8 | 
[V:3] g8 | 
[V:4] C,8 | 
[V:1] d2c3BAG | 
[V:2] z8 | 
[V:3] f6=e2 | 
[V:4] F,8 | 
[V:1] F2B4A2 | 
[V:2] f6=e2 | 
[V:3] d4c4 | 
[V:4] F,8 | 
[V:1] B4z4 | 
[V:2] d2B2c2B2- | 
[V:3] B4A2G2 | 
[V:4] z8 | 
[V:1] z8 | 
[V:2] B2A2B4 | 
[V:3] c4G2d2 | 
[V:4] z8 | 
[V:1] z8 | 
[V:2] A2G2c2BA | 
[V:3] c2e4dc | 
[V:4] z8 | 
[V:1] z8 | 
[V:2] G2g4^f2 | 
[V:3] B2G2A4 | 
[V:4] z8 | 
[V:1] d6cB | 
[V:2] g4z2G2 | 
[V:3] G8 | 
[V:4] G,8 | 
[V:1] A2c3BAG | 
[V:2] c3BAGB2- | 
[V:3] z8 | 
[V:4] F,4E,4 | 
[V:1] F2G4^F2 | 
[V:2] B2AGA4 | 
[V:3] d6c2 | 
[V:4] D,8 | 
[V:1] G6=E2 | 
[V:2] G8 | 
[V:3] d2e4dc | 
[V:4] z4C,4 | 
[V:1] F8 | 
[V:2] z4A4 | 
[V:3] B2A2d4- | 
[V:4] D,8 | 
[V:1] G4A2B2- | 
[V:2] G4G4 | 
[V:3] d2cBc2B2 | 
[V:4] E,8 | 
[V:1] B2AGF4 | 
[V:2] A8 | 
[V:3] d8- | 
[V:4] D,8 | 
[V:1] z2G2F2G2- | 
[V:2] G4B4 | 
[V:3] d8 | 
[V:4] z8 | 
[V:1] G2B2A2G2 | 
[V:2] c2d4=e2 | 
[V:3] z2G2F2c2 | 
[V:4] z8 | 
[V:1] B4A2B2- | 
[V:2] d2c4Bc | 
[V:3] B2F4G2 | 
[V:4] z8 | 
[V:1] B2d2c2B2 | 
[V:2] d=ef4g2- | 
[V:3] B4A2G2 | 
[V:4] z8 | 
[V:1] d4=e2f2- | 
[V:2] g2f2g2a2- | 
[V:3] B3AG2F2- | 
[V:4] z8 | 
[V:1] f=ed4c2 | 
[V:2] a2gf=e4 | 
[V:3] F2G2A4 | 
[V:4] z8 | 
[V:1] d4B4 | 
[V:2] d4z2f2- | 
[V:3] B2G4B2 | 
[V:4] z8 | 
[V:1] c2d2B2c2- | 
[V:2] f8- | 
[V:3] A2B4F2 | 
[V:4] z8 | 
[V:1] cBAGA4 | 
[V:2] f6f2 | 
[V:3] A2B2c4 | 
[V:4] F,8 | 
[V:1] B4A2G2- | 
[V:2] g4f2e2- | 
[V:3] G4z4 | 
[V:4] E,8 | 
[V:1] G2F=EF4 | 
[V:2] e2dcB4 | 
[V:3] z8 | 
[V:4] D,8 | 
[V:1] E4E4 | 
[V:2] c8 | 
[V:3] G6A2 | 
[V:4] C,8 | 
[V:1] D4d4 | 
[V:2] F4f4 | 
[V:3] B8 | 
[V:4] B,,8 | 
[V:1] c4B2A2- | 
[V:2] =e4d4- | 
[V:3] G4F4 | 
[V:4] C,4D,4 | 
[V:1] A2G2G4- | 
[V:2] d2cBc4 | 
[V:3] G8 | 
[V:4] E,8 | 
[V:1] G2^F2F2=E2 | 
[V:2] d8- | 
[V:3] A8 | 
[V:4] D,8 | 
[V:1] G8 |]  
[V:2] d8 |]  
[V:3] G8 |]  
[V:4] G,,8 |]  



